src/assets/images/login/pass_hide_icon.svg

<svg width="28" height="28" viewBox="0 0 28 28" fill="none" xmlns="http://www.w3.org/2000/svg">
<path d="M24.9884 10.8516C25.3099 10.4494 25.2443 9.86243 24.8426 9.5409C24.44 9.21892 23.8544 9.28541 23.531 9.68663C23.4973 9.72944 20.0106 13.9999 14 13.9999C8.02315 13.9999 4.50185 9.72807 4.46906 9.68663C4.14663 9.28541 3.56096 9.21845 3.15745 9.5409C2.75578 9.86243 2.69019 10.4494 3.01172 10.8516C3.0695 10.9238 3.604 11.5714 4.56168 12.3752L2.9261 14.3683L4.36796 15.5515L6.0628 13.4861C6.7658 13.943 7.58463 14.3924 8.51562 14.7769L7.57683 17.375L9.3311 18.0089L10.2832 15.374C11.1406 15.604 12.0709 15.7612 13.0673 15.8252V18.6634H14.9327V15.8252C15.9486 15.7599 16.8946 15.5966 17.766 15.3595L18.7282 17.9916L20.4797 17.3509L19.5322 14.7589C20.4154 14.3905 21.1926 13.9631 21.8691 13.5283L23.5538 15.6075L25.0029 14.433L23.3775 12.4268C24.3752 11.5988 24.9293 10.9254 24.9884 10.8516Z" fill="#D0D0D0"/>
</svg>

<svg xmlns="http://www.w3.org/2000/svg" width="28" height="28" fill="none"><path fill="#D0D0D0" d="M24.988 10.852a.933.933 0 0 0-1.457-1.165C23.497 9.729 20.011 14 14 14c-5.977 0-9.498-4.272-9.53-4.313a.934.934 0 0 0-1.458 1.165c.058.072.592.72 1.55 1.523l-1.636 1.993 1.442 1.184 1.695-2.066c.703.457 1.522.906 2.453 1.29l-.94 2.599 1.755.634.952-2.635c.858.23 1.788.387 2.784.451v2.838h1.866v-2.838a14.265 14.265 0 0 0 2.833-.465l.962 2.632 1.752-.641-.948-2.592a15.15 15.15 0 0 0 2.337-1.23l1.685 2.079 1.449-1.175-1.625-2.006c.997-.828 1.551-1.502 1.61-1.575Z"/></svg>
